;FLAVOR:Marlin
;TIME:4547
;Filament used: 7.1984m
;Layer height: 0.32
;MINX:71.77
;MINY:51.265
;MINZ:0.32
;MAXX:163.228
;MAXY:182.911
;MAXZ:7.36
;Generated with Cura_SteamEngine 4.6.1
M140 S50
M105
M190 S50
M104 S200
M105
M109 S200
M82 ;absolute extrusion mode
; Ender 3 Custom Start G-code
G92 E0 ; Reset Extruder
G28 ; Home all axes
G1 Z2.0 F3000 ; Move Z Axis up little to prevent scratching of Heat Bed
G1 X0.1 Y20 Z0.3 F5000.0 ; Move to start position
G1 X0.1 Y200.0 Z0.3 F1500.0 E15 ; Draw the first line
G1 X0.4 Y200.0 Z0.3 F5000.0 ; Move to side a little
G1 X0.4 Y20 Z0.3 F1500.0 E30 ; Draw the second line
G92 E0 ; Reset Extruder
G1 Z2.0 F3000 ; Move Z Axis up little to prevent scratching of Heat Bed
G1 X5 Y20 Z0.3 F5000.0 ; Move over to prevent blob squish
G92 E0
G92 E0
G1 F2700 E-5
;LAYER_COUNT:23
;LAYER:0
M107
G0 F6000 X120.791 Y52.481 Z0.32
;TYPE:SKIRT
G1 F2700 E0
G1 F1200 X121.998 Y52.499 E0.09636
G1 X123.612 Y52.544 E0.22525
G1 X124.272 Y52.572 E0.27798
G1 X125.456 Y52.641 E0.37265
G1 X125.857 Y52.674 E0.40477
G1 X126.752 Y52.756 E0.47651
G1 X127.858 Y52.875 E0.5653
G1 X128.395 Y52.949 E0.60857
G1 X129.032 Y53.049 E0.66005
G1 X129.483 Y53.13 E0.69662
G1 X129.764 Y53.187 E0.71951
G1 X130.644 Y53.406 E0.7919
G1 X131.261 Y53.61 E0.84377
G1 X133.172 Y54.312 E1.00628
G1 X134.597 Y54.86 E1.12815
G1 X135.286 Y55.146 E1.1877
G1 X135.774 Y55.362 E1.2303
G1 X136.059 Y55.496 E1.25544
G1 X136.664 Y55.793 E1.30924
G1 X136.96 Y55.944 E1.33577
G1 X137.514 Y56.244 E1.38606
G1 X137.778 Y56.394 E1.41029
G1 X138.139 Y56.608 E1.44379
G1 X138.678 Y56.944 E1.49449
G1 X139.426 Y57.458 E1.56694
G1 X140.126 Y58.035 E1.63935
G1 X140.773 Y58.672 E1.71183
G1 X141.547 Y59.61 E1.8089
G1 X143.261 Y61.957 E2.04089
G1 X144.167 Y63.14 E2.15984
G1 X145.039 Y64.257 E2.27295
G1 X145.273 Y64.569 E2.30409
G1 X145.651 Y65.093 E2.35566
G1 X145.841 Y65.365 E2.38215
G1 X146.392 Y66.183 E2.46087
G1 X146.587 Y66.483 E2.48944
G1 X147.371 Y67.739 E2.60762
G1 X147.529 Y68.002 E2.63211
G1 X148.093 Y68.977 E2.72203
G1 X148.839 Y70.353 E2.84697
G1 X149.251 Y71.171 E2.92008
G1 X149.778 Y72.272 E3.01752
G1 X150.314 Y73.464 E3.12184
G1 X150.9 Y74.856 E3.2424
G1 X151.206 Y75.628 E3.30869
G1 X151.501 Y76.393 E3.37414
G1 X151.916 Y77.503 E3.46874
G1 X152.234 Y78.381 E3.54328
G1 X152.833 Y80.1 E3.68859
G1 X153.181 Y81.152 E3.77704
G1 X153.552 Y82.309 E3.87403
G1 X153.853 Y83.278 E3.95502
G1 X154.18 Y84.364 E4.04556
G1 X154.419 Y85.18 E4.11343
G1 X154.757 Y86.377 E4.21271
G1 X155.007 Y87.285 E4.28789
G1 X155.562 Y89.397 E4.4622
G1 X156.111 Y91.601 E4.64351
G1 X156.634 Y93.827 E4.82604
G1 X156.831 Y94.707 E4.89803
G1 X157.447 Y97.551 E5.13031
G1 X157.603 Y98.311 E5.19224
G1 X158.019 Y100.397 E5.36203
G1 X158.183 Y101.257 E5.43192
G1 X158.806 Y104.689 E5.71035
G1 X158.965 Y105.607 E5.78472
G1 X159.118 Y106.532 E5.85956
G1 X159.736 Y110.456 E6.17666
G1 X159.952 Y112.007 E6.30166
G1 X160.357 Y114.975 E6.54077
G1 X160.56 Y116.61 E6.67229
G1 X161.005 Y120.53 E6.98721
G1 X161.091 Y121.4 E7.05699
G1 X161.491 Y125.854 E7.41396
G1 X161.671 Y128.346 E7.6134
G1 X161.785 Y130.273 E7.76749
G1 X161.83 Y131.138 E7.83663
G1 X161.909 Y132.908 E7.97806
G1 X161.938 Y133.709 E8.04205
G1 X161.992 Y135.523 E8.18691
G1 X162.009 Y136.39 E8.25613
G1 X162.029 Y138.863 E8.45354
G1 X162.006 Y141.086 E8.631
G1 X161.982 Y142.096 E8.71165
G1 X161.948 Y143.107 E8.7924
G1 X161.89 Y144.444 E8.89922
G1 X161.825 Y145.662 E8.99659
G1 X161.773 Y146.444 E9.05915
G1 X161.666 Y147.822 E9.16948
G1 X161.587 Y148.696 E9.23953
G1 X161.357 Y150.837 E9.41141
G1 X161.098 Y152.763 E9.56654
G1 X160.813 Y154.527 E9.70918
G1 X160.483 Y156.271 E9.85086
G1 X160.411 Y156.618 E9.87915
G1 X160.119 Y157.915 E9.98527
G1 X160.037 Y158.255 E10.01319
G1 X159.72 Y159.469 E10.11335
G1 X159.631 Y159.787 E10.13971
G1 X159.268 Y161.01 E10.24154
G1 X159.076 Y161.605 E10.29145
G1 X158.914 Y162.075 E10.33113
G1 X158.667 Y162.761 E10.38933
G1 X158.493 Y163.212 E10.42792
G1 X157.944 Y164.538 E10.54248
G1 X157.789 Y164.893 E10.5734
G1 X157.472 Y165.584 E10.63409
G1 X157.32 Y165.901 E10.66215
G1 X157.016 Y166.508 E10.71634
G1 X156.851 Y166.824 E10.7448
G1 X156.681 Y167.136 E10.77316
G1 X156.52 Y167.42 E10.79922
G1 X155.982 Y168.337 E10.88408
G1 X155.687 Y168.815 E10.92892
G1 X155.494 Y169.11 E10.95706
G1 X155.129 Y169.647 E11.00889
G1 X154.843 Y170.047 E11.04814
G1 X154.234 Y170.857 E11.12904
G1 X153.911 Y171.264 E11.17051
G1 X153.494 Y171.764 E11.22249
G1 X153.226 Y172.073 E11.25514
G1 X152.963 Y172.364 E11.28645
G1 X152.638 Y172.707 E11.32416
G1 X151.881 Y173.465 E11.40968
G1 X151.525 Y173.803 E11.44886
G1 X151.171 Y174.123 E11.48695
G1 X150.934 Y174.328 E11.51197
G1 X150.683 Y174.538 E11.53809
G1 X149.948 Y175.134 E11.61363
G1 X149.559 Y175.435 E11.65289
G1 X149.118 Y175.759 E11.69657
G1 X148.83 Y175.963 E11.72474
G1 X148.322 Y176.31 E11.77385
G1 X148.015 Y176.512 E11.80319
G1 X147.284 Y176.974 E11.87222
G1 X146.747 Y177.291 E11.92199
G1 X145.773 Y177.827 E12.01074
G1 X145.425 Y178.01 E12.04212
G1 X144.824 Y178.306 E12.0956
G1 X144.193 Y178.598 E12.1511
G1 X143.545 Y178.879 E12.20748
G1 X143.271 Y178.992 E12.23114
G1 X142.655 Y179.235 E12.284
G1 X142.317 Y179.362 E12.31282
G1 X141.638 Y179.599 E12.37023
G1 X140.694 Y179.902 E12.44937
G1 X139.713 Y180.186 E12.53089
G1 X139.166 Y180.328 E12.576
G1 X138.241 Y180.55 E12.65194
G1 X137.709 Y180.662 E12.69534
G1 X136.048 Y180.969 E12.83017
G1 X135.621 Y181.039 E12.86471
G1 X134.4 Y181.212 E12.96315
G1 X134.074 Y181.253 E12.98938
G1 X132.35 Y181.437 E13.12778
G1 X130.604 Y181.57 E13.26755
G1 X129.149 Y181.645 E13.38385
G1 X128.54 Y181.667 E13.4325
G1 X127.118 Y181.701 E13.54604
G1 X126.493 Y181.708 E13.59593
G1 X125.368 Y181.711 E13.68573
G1 X124.511 Y181.705 E13.75415
G1 X121.635 Y181.648 E13.98377
G1 X118.546 Y181.556 E14.23045
G1 X117.301 Y181.505 E14.32992
G1 X115.617 Y181.416 E14.46453
G1 X113.888 Y181.298 E14.60287
G1 X112.586 Y181.187 E14.70717
G1 X111 Y181.025 E14.83443
G1 X110.7 Y180.989 E14.85855
G1 X109.517 Y180.833 E14.9538
G1 X108.264 Y180.649 E15.0549
G1 X107.309 Y180.487 E15.13222
G1 X106.395 Y180.313 E15.20649
G1 X105.58 Y180.142 E15.27296
G1 X104.573 Y179.911 E15.35543
G1 X104.225 Y179.825 E15.38405
G1 X103.058 Y179.512 E15.48049
G1 X102.209 Y179.262 E15.55114
G1 X101.092 Y178.905 E15.64475
G1 X100.623 Y178.74 E15.68443
G1 X99.625 Y178.371 E15.76937
G1 X99.381 Y178.274 E15.79033
G1 X99.056 Y178.139 E15.81842
G1 X97.773 Y177.572 E15.93039
G1 X97.296 Y177.342 E15.97266
G1 X96.457 Y176.919 E16.04767
G1 X95.926 Y176.631 E16.09589
G1 X93.832 Y175.417 E16.2891
G1 X92.399 Y174.574 E16.42181
G1 X89.401 Y172.933 E16.69463
G1 X88.624 Y172.465 E16.76703
G1 X87.891 Y171.929 E16.83952
G1 X87.208 Y171.331 E16.91198
G1 X86.461 Y170.536 E16.99906
G1 X86.069 Y170.072 E17.04755
G1 X85.786 Y169.722 E17.08348
G1 X85.398 Y169.214 E17.13451
G1 X84.938 Y168.581 E17.19697
G1 X84.563 Y168.033 E17.24997
G1 X84.043 Y167.241 E17.3256
G1 X83.834 Y166.909 E17.35692
G1 X83.26 Y165.952 E17.446
G1 X82.968 Y165.432 E17.4936
G1 X82.421 Y164.411 E17.58606
G1 X82.187 Y163.941 E17.62797
G1 X81.013 Y161.479 E17.8457
G1 X80.217 Y159.877 E17.9885
G1 X80.057 Y159.541 E18.0182
G1 X79.734 Y158.787 E18.08368
G1 X79.65 Y158.567 E18.10248
G1 X79.512 Y158.183 E18.13505
G1 X79.054 Y156.809 E18.25066
G1 X78.635 Y155.422 E18.36632
G1 X77.84 Y152.919 E18.57595
G1 X77.431 Y151.72 E18.67708
G1 X77.187 Y150.893 E18.74591
G1 X76.941 Y149.89 E18.82834
G1 X76.788 Y149.183 E18.88609
G1 X76.578 Y148.165 E18.96906
G1 X76.018 Y145.623 E19.17684
G1 X75.888 Y145.093 E19.2204
G1 X75.56 Y143.717 E19.33331
G1 X75.437 Y143.127 E19.38142
G1 X75.398 Y142.907 E19.39926
G1 X75.339 Y142.534 E19.4294
G1 X75.24 Y141.824 E19.48663
G1 X74.853 Y139.307 E19.68991
G1 X74.596 Y137.938 E19.80109
G1 X74.367 Y136.611 E19.90859
G1 X74.289 Y136.073 E19.95198
G1 X74.172 Y135.057 E20.03362
G1 X74.143 Y134.745 E20.05863
G1 X73.922 Y132.148 E20.26668
G1 X73.831 Y130.917 E20.36522
G1 X73.67 Y128.401 E20.56646
G1 X73.63 Y127.681 E20.62403
G1 X73.443 Y125.008 E20.83792
G1 X73.26 Y123.077 E20.99275
G1 X73.143 Y121.971 E21.08153
G1 X73.096 Y121.342 E21.13188
G1 X73.043 Y120.066 E21.23382
G1 X72.974 Y116.445 E21.52292
G1 X72.97 Y115.799 E21.57449
G1 X72.975 Y115.054 E21.63396
G1 X72.996 Y114.468 E21.68076
G1 X73.069 Y113.337 E21.77123
G1 X73.122 Y112.653 E21.826
G1 X73.287 Y108.785 E22.13504
G1 X73.345 Y106.206 E22.34096
G1 X73.377 Y105.131 E22.4268
G1 X73.477 Y102.59 E22.6298
G1 X73.535 Y101.414 E22.72378
G1 X73.586 Y100.59 E22.78968
G1 X73.637 Y99.897 E22.84515
G1 X73.696 Y99.314 E22.89193
G1 X73.767 Y98.787 E22.93437
G1 X74.034 Y96.942 E23.08318
G1 X74.309 Y94.607 E23.27086
G1 X74.585 Y91.972 E23.48235
G1 X74.713 Y90.883 E23.56988
G1 X74.812 Y90.166 E23.62765
G1 X74.967 Y89.31 E23.6971
G1 X75.139 Y88.546 E23.75961
G1 X75.683 Y85.969 E23.96985
G1 X76.24 Y83.021 E24.20933
G1 X76.39 Y82.287 E24.26914
G1 X76.711 Y80.813 E24.38955
G1 X76.84 Y80.263 E24.43465
G1 X77.207 Y78.82 E24.5535
G1 X77.484 Y77.964 E24.62532
G1 X77.979 Y76.639 E24.73823
G1 X78.708 Y74.716 E24.90239
G1 X79.348 Y72.923 E25.05436
G1 X79.491 Y72.544 E25.0867
G1 X79.881 Y71.574 E25.17015
G1 X80.004 Y71.282 E25.19544
G1 X80.491 Y70.179 E25.29169
G1 X80.796 Y69.541 E25.34814
G1 X81.107 Y68.926 E25.40315
G1 X81.552 Y68.135 E25.47559
G1 X82.03 Y67.433 E25.54339
G1 X82.434 Y66.889 E25.59748
G1 X84.286 Y64.34 E25.84899
G1 X84.682 Y63.83 E25.90053
G1 X85.089 Y63.338 E25.9515
G1 X85.47 Y62.898 E25.99796
G1 X85.676 Y62.671 E26.02243
G1 X86.424 Y61.873 E26.10974
G1 X86.906 Y61.392 E26.16409
G1 X87.701 Y60.649 E26.25095
G1 X88.21 Y60.204 E26.30492
G1 X89.103 Y59.473 E26.39704
G1 X89.416 Y59.226 E26.42887
G1 X90.015 Y58.778 E26.48858
G1 X90.244 Y58.614 E26.51106
G1 X90.582 Y58.382 E26.54379
G1 X91.207 Y57.971 E26.6035
G1 X91.516 Y57.776 E26.63266
G1 X92.384 Y57.253 E26.71356
G1 X93.035 Y56.887 E26.77317
G1 X93.633 Y56.568 E26.82727
G1 X93.947 Y56.408 E26.85541
G1 X94.655 Y56.065 E26.9182
G1 X95.51 Y55.678 E26.99312
G1 X96.333 Y55.334 E27.06432
G1 X97.125 Y55.028 E27.1321
G1 X98.061 Y54.695 E27.2114
G1 X98.746 Y54.473 E27.26888
G1 X99.667 Y54.195 E27.34568
G1 X100.12 Y54.07 E27.38319
G1 X101.434 Y53.738 E27.49137
G1 X101.858 Y53.64 E27.52611
G1 X102.915 Y53.42 E27.61229
G1 X103.365 Y53.337 E27.64882
G1 X104.651 Y53.131 E27.75278
G1 X105.072 Y53.074 E27.7867
G1 X106.48 Y52.897 E27.89997
G1 X107.583 Y52.779 E27.98852
G1 X108.187 Y52.729 E28.0369
G1 X109.302 Y52.65 E28.12613
G1 X111.406 Y52.542 E28.2943
G1 X112.475 Y52.507 E28.37968
G1 X113.765 Y52.481 E28.48267
G1 X115.914 Y52.465 E28.65422
G1 X119.888 Y52.473 E28.97144
G1 X120.791 Y52.481 E29.04353
G0 F6000 X122.015 Y51.899
G1 F1200 X123.636 Y51.945 E29.17297
G1 X124.306 Y51.973 E29.2265
G1 X125.504 Y52.043 E29.32229
G1 X125.911 Y52.076 E29.35489
G1 X126.814 Y52.159 E29.42727
G1 X127.935 Y52.28 E29.51728
G1 X128.488 Y52.356 E29.56184
G1 X129.125 Y52.456 E29.61331
G1 X129.602 Y52.542 E29.652
G1 X129.883 Y52.599 E29.67488
G1 X130.789 Y52.823 E29.74938
G1 X131.468 Y53.047 E29.80646
G1 X133.386 Y53.751 E29.96955
G1 X134.827 Y54.306 E30.09281
G1 X135.516 Y54.592 E30.15236
G1 X136.022 Y54.815 E30.1965
G1 X136.323 Y54.957 E30.22307
G1 X136.928 Y55.254 E30.27686
G1 X137.241 Y55.414 E30.30492
G1 X137.811 Y55.722 E30.35664
G1 X138.075 Y55.872 E30.38088
G1 X138.456 Y56.099 E30.41628
G1 X138.995 Y56.435 E30.46698
G1 X139.766 Y56.962 E30.54153
G1 X140.488 Y57.554 E30.61606
G1 X141.157 Y58.205 E30.69057
G1 X142.031 Y59.256 E30.79969
G1 X143.716 Y61.563 E31.02773
G1 X144.701 Y62.849 E31.15704
G1 X145.512 Y63.888 E31.26225
G1 X145.76 Y64.218 E31.2952
G1 X146.138 Y64.742 E31.34678
G1 X146.338 Y65.029 E31.3747
G1 X146.889 Y65.847 E31.45343
G1 X147.095 Y66.165 E31.48367
G1 X148.047 Y67.699 E31.62779
G1 X148.62 Y68.69 E31.71917
G1 X149.374 Y70.082 E31.84553
G1 X149.791 Y70.911 E31.91961
G1 X150.325 Y72.025 E32.01822
G1 X150.866 Y73.231 E32.12373
G1 X151.458 Y74.635 E32.24536
G1 X151.765 Y75.412 E32.31205
G1 X152.063 Y76.182 E32.37796
G1 X152.48 Y77.298 E32.47306
G1 X152.799 Y78.182 E32.54808
G1 X153.153 Y79.184 E32.63291
G1 X153.402 Y79.911 E32.69425
G1 X153.753 Y80.968 E32.78315
G1 X154.125 Y82.131 E32.88062
G1 X154.427 Y83.105 E32.96202
G1 X154.756 Y84.195 E33.05291
G1 X154.997 Y85.017 E33.12128
G1 X155.336 Y86.217 E33.22082
G1 X155.587 Y87.132 E33.29656
G1 X156.145 Y89.252 E33.47155
G1 X156.695 Y91.464 E33.6535
G1 X157.22 Y93.696 E33.83653
G1 X157.417 Y94.58 E33.90883
G1 X158.035 Y97.43 E34.14161
G1 X158.191 Y98.193 E34.20378
G1 X158.608 Y100.284 E34.37398
G1 X158.773 Y101.15 E34.44435
G1 X159.398 Y104.587 E34.7232
G1 X159.557 Y105.508 E34.79781
G1 X159.711 Y106.438 E34.87306
G1 X160.33 Y110.374 E35.19111
G1 X160.546 Y111.925 E35.31611
G1 X160.952 Y114.901 E35.55587
G1 X161.156 Y116.542 E35.68787
G1 X161.602 Y120.47 E36.00343
G1 X161.689 Y121.347 E36.07378
G1 X162.09 Y125.81 E36.43147
G1 X162.27 Y128.31 E36.63155
G1 X162.385 Y130.243 E36.78612
G1 X162.429 Y131.111 E36.8555
G1 X162.508 Y132.886 E36.99733
G1 X162.538 Y133.691 E37.06163
G1 X162.592 Y135.511 E37.20698
G1 X162.609 Y136.385 E37.27676
G1 X162.628 Y138.869 E37.47504
G1 X162.606 Y141.1 E37.65314
G1 X162.582 Y142.116 E37.73427
G1 X162.548 Y143.132 E37.81541
G1 X162.49 Y144.476 E37.9228
G1 X162.423 Y145.701 E38.02073
G1 X162.371 Y146.49 E38.08385
G1 X162.263 Y147.875 E38.19474
G1 X162.184 Y148.759 E38.26558
G1 X161.952 Y150.916 E38.43876
G1 X161.691 Y152.857 E38.59509
G1 X161.403 Y154.639 E38.73918
G1 X161.073 Y156.383 E38.88087
G1 X160.997 Y156.75 E38.91078
G1 X160.705 Y158.047 E39.01691
G1 X160.617 Y158.407 E39.04649
G1 X160.3 Y159.621 E39.14665
G1 X160.207 Y159.957 E39.17448
G1 X159.84 Y161.191 E39.27724
G1 X159.644 Y161.799 E39.32824
G1 X159.478 Y162.279 E39.36878
G1 X159.231 Y162.965 E39.42698
G1 X159.047 Y163.442 E39.46779
G1 X158.498 Y164.768 E39.58235
G1 X158.334 Y165.143 E39.61502
G1 X158.017 Y165.834 E39.67571
G1 X157.856 Y166.17 E39.70545
G1 X157.552 Y166.777 E39.75964
G1 X157.377 Y167.111 E39.78974
G1 X157.207 Y167.423 E39.8181
G1 X157.037 Y167.724 E39.8457
G1 X156.499 Y168.641 E39.93056
G1 X156.194 Y169.135 E39.97691
G1 X155.99 Y169.447 E40.00666
G1 X155.625 Y169.984 E40.05849
G1 X155.322 Y170.407 E40.10003
G1 X154.713 Y171.217 E40.18092
G1 X154.372 Y171.648 E40.22479
G1 X153.955 Y172.148 E40.27676
G1 X153.671 Y172.476 E40.3114
G1 X153.408 Y172.767 E40.34271
G1 X153.064 Y173.129 E40.38257
G1 X152.294 Y173.9 E40.46955
G1 X151.938 Y174.238 E40.50873
G1 X151.564 Y174.577 E40.54903
G1 X151.327 Y174.782 E40.57404
G1 X151.061 Y175.004 E40.6017
G1 X150.326 Y175.6 E40.67723
G1 X149.915 Y175.918 E40.71872
G1 X149.474 Y176.242 E40.7624
G1 X149.168 Y176.459 E40.79234
G1 X148.66 Y176.806 E40.84145
G1 X148.335 Y177.019 E40.87247
G1 X147.604 Y177.481 E40.9415
G1 X147.036 Y177.817 E40.99418
G1 X146.062 Y178.353 E41.08292
G1 X145.694 Y178.546 E41.11609
G1 X145.385 Y178.701 E41.14369
G1 X145.076 Y178.85 E41.17107
G1 X144.158 Y179.27 E41.25165
G1 X143.491 Y179.551 E41.30943
G1 X142.875 Y179.794 E41.36229
G1 X142.518 Y179.927 E41.3927
G1 X141.824 Y180.169 E41.45137
G1 X140.863 Y180.477 E41.53192
G1 X139.866 Y180.766 E41.61478
G1 X139.306 Y180.911 E41.66096
G1 X138.381 Y181.133 E41.73689
G1 X137.818 Y181.252 E41.78283
G1 X136.157 Y181.559 E41.91766
G1 X135.705 Y181.633 E41.95422
G1 X134.484 Y181.806 E42.05266
G1 X134.139 Y181.849 E42.08041
G1 X132.397 Y182.035 E42.22026
G1 X130.636 Y182.169 E42.36124
G1 X129.172 Y182.245 E42.47826
G1 X128.555 Y182.267 E42.52754
G1 X127.125 Y182.301 E42.64172
G1 X126.495 Y182.308 E42.69201
G1 X125.365 Y182.311 E42.78221
G1 X124.5 Y182.305 E42.85126
G1 X121.618 Y182.248 E43.08136
G1 X118.522 Y182.156 E43.32861
G1 X117.27 Y182.104 E43.42863
G1 X115.576 Y182.015 E43.56404
G1 X113.838 Y181.896 E43.7031
G1 X112.525 Y181.784 E43.80829
G1 X110.939 Y181.622 E43.93555
G1 X110.621 Y181.584 E43.96112
G1 X109.431 Y181.427 E44.05693
G1 X108.165 Y181.241 E44.15907
G1 X107.198 Y181.077 E44.23737
G1 X106.274 Y180.9 E44.31246
G1 X105.446 Y180.727 E44.37999
G1 X104.439 Y180.496 E44.46246
G1 X104.07 Y180.405 E44.49279
G1 X102.891 Y180.088 E44.59025
G1 X102.028 Y179.834 E44.66206
