;FLAVOR:Marlin
;TIME:5244
;Filament used: 7.77692m
;Layer height: 0.32
;MINX:70.902
;MINY:49.224
;MINZ:0.32
;MAXX:163.842
;MAXY:185.837
;MAXZ:17.92
;Generated with Cura_SteamEngine 4.6.1
M140 S50
M105
M190 S50
M104 S200
M105
M109 S200
M82 ;absolute extrusion mode
; Ender 3 Custom Start G-code
G92 E0 ; Reset Extruder
G28 ; Home all axes
G1 Z2.0 F3000 ; Move Z Axis up little to prevent scratching of Heat Bed
G1 X0.1 Y20 Z0.3 F5000.0 ; Move to start position
G1 X0.1 Y200.0 Z0.3 F1500.0 E15 ; Draw the first line
G1 X0.4 Y200.0 Z0.3 F5000.0 ; Move to side a little
G1 X0.4 Y20 Z0.3 F1500.0 E30 ; Draw the second line
G92 E0 ; Reset Extruder
G1 Z2.0 F3000 ; Move Z Axis up little to prevent scratching of Heat Bed
G1 X5 Y20 Z0.3 F5000.0 ; Move over to prevent blob squish
G92 E0
G92 E0
G1 F2700 E-5
;LAYER_COUNT:56
;LAYER:0
M107
G0 F6000 X123.612 Y50.444 Z0.32
;TYPE:SKIRT
G1 F2700 E0
G1 F1200 X124.772 Y50.491 E0.09267
G1 X125.564 Y50.536 E0.156
G1 X126.761 Y50.62 E0.25178
G1 X127.18 Y50.659 E0.28537
G1 X128.044 Y50.748 E0.3547
G1 X128.999 Y50.864 E0.4315
G1 X129.329 Y50.912 E0.45812
G1 X130.22 Y51.082 E0.53052
G1 X130.926 Y51.276 E0.58897
G1 X132.524 Y51.78 E0.72272
G1 X134.699 Y52.522 E0.90616
G1 X135.3 Y52.745 E0.95733
G1 X135.885 Y52.983 E1.00775
G1 X136.755 Y53.368 E1.08369
G1 X137.37 Y53.665 E1.13821
G1 X137.988 Y53.989 E1.19391
G1 X138.772 Y54.445 E1.26631
G1 X139.731 Y55.142 E1.36094
G1 X140.856 Y56.065 E1.4771
G1 X141.588 Y56.681 E1.55347
G1 X142.332 Y57.294 E1.63042
G1 X142.687 Y57.601 E1.66788
G1 X143.07 Y57.949 E1.70919
G1 X143.324 Y58.192 E1.73725
G1 X143.952 Y58.848 E1.80974
G1 X144.519 Y59.556 E1.88215
G1 X144.893 Y60.105 E1.93517
G1 X146.744 Y63.013 E2.21034
G1 X147.466 Y64.106 E2.3149
G1 X147.646 Y64.388 E2.34161
G1 X148.132 Y65.178 E2.41565
G1 X148.291 Y65.446 E2.44052
G1 X148.639 Y66.052 E2.4963
G1 X149.157 Y67.083 E2.58841
G1 X150.558 Y70.314 E2.86952
G1 X150.828 Y71.005 E2.92874
G1 X151.414 Y72.677 E3.07017
G1 X151.584 Y73.138 E3.10939
G1 X152.063 Y74.475 E3.22276
G1 X152.243 Y75.025 E3.26895
G1 X152.548 Y76.057 E3.35485
G1 X153.055 Y77.841 E3.5029
G1 X153.288 Y78.611 E3.56711
G1 X153.513 Y79.491 E3.63962
G1 X153.604 Y79.987 E3.67987
G1 X153.702 Y80.606 E3.7299
G1 X154.15 Y83.266 E3.94522
G1 X154.641 Y85.746 E4.14703
G1 X155.2 Y88.204 E4.34825
G1 X155.679 Y90.097 E4.50412
G1 X155.996 Y91.309 E4.60412
G1 X156.37 Y92.794 E4.72636
G1 X156.62 Y93.818 E4.8105
G1 X157.24 Y96.475 E5.02829
G1 X157.602 Y98.116 E5.16243
G1 X157.804 Y99.073 E5.24051
G1 X158.141 Y100.717 E5.37447
G1 X158.329 Y101.684 E5.4531
G1 X158.979 Y105.135 E5.73342
G1 X159.18 Y106.245 E5.82347
G1 X159.572 Y108.533 E6.00877
G1 X159.921 Y110.629 E6.17838
G1 X160.061 Y111.522 E6.25054
G1 X160.342 Y113.394 E6.40164
G1 X160.751 Y116.254 E6.63226
G1 X161.011 Y118.247 E6.7927
G1 X161.452 Y121.914 E7.08752
G1 X161.585 Y123.146 E7.18644
G1 X161.976 Y127.219 E7.51306
G1 X162.067 Y128.276 E7.59774
G1 X162.255 Y130.781 E7.79827
G1 X162.412 Y133.328 E8.00197
G1 X162.529 Y135.85 E8.2035
G1 X162.588 Y137.55 E8.33928
G1 X162.607 Y138.332 E8.40172
G1 X162.635 Y139.924 E8.52882
G1 X162.642 Y140.929 E8.60905
G1 X162.64 Y142.311 E8.71937
G1 X162.628 Y143.359 E8.80303
G1 X162.604 Y144.513 E8.89516
G1 X162.56 Y145.883 E9.00458
G1 X162.518 Y146.842 E9.0812
G1 X162.444 Y148.187 E9.18873
G1 X162.38 Y149.123 E9.26362
G1 X162.281 Y150.379 E9.36419
G1 X162.207 Y151.203 E9.43023
G1 X161.993 Y153.191 E9.58984
G1 X161.724 Y155.166 E9.74895
G1 X161.322 Y157.829 E9.96393
G1 X161.016 Y160.331 E10.16514
G1 X160.75 Y163.203 E10.39537
G1 X160.626 Y164.102 E10.46781
G1 X160.424 Y164.986 E10.5402
G1 X160.207 Y165.679 E10.59817
G1 X160.111 Y165.951 E10.62119
G1 X159.971 Y166.324 E10.65299
G1 X159.589 Y167.286 E10.73562
G1 X159.461 Y167.594 E10.76224
G1 X159.21 Y168.171 E10.81247
G1 X159.014 Y168.596 E10.84983
G1 X158.6 Y169.432 E10.9243
G1 X158.463 Y169.695 E10.94797
G1 X158.288 Y170.017 E10.97722
G1 X157.651 Y171.141 E11.08035
G1 X156.716 Y172.805 E11.23271
G1 X156.414 Y173.325 E11.28071
G1 X155.924 Y174.089 E11.35316
G1 X155.55 Y174.586 E11.40281
G1 X155.402 Y174.771 E11.42173
G1 X154.99 Y175.255 E11.47246
G1 X154.446 Y175.855 E11.53711
G1 X154.078 Y176.24 E11.57963
G1 X153.292 Y177.015 E11.66774
G1 X153.042 Y177.248 E11.69502
G1 X152.376 Y177.834 E11.76583
G1 X151.791 Y178.318 E11.82644
G1 X151.236 Y178.75 E11.88258
G1 X151.029 Y178.904 E11.90317
G1 X150.766 Y179.093 E11.92903
G1 X149.891 Y179.698 E12.01394
G1 X149.686 Y179.833 E12.03354
G1 X149.359 Y180.04 E12.06443
G1 X148.562 Y180.523 E12.13882
G1 X148.03 Y180.824 E12.18761
G1 X147.014 Y181.36 E12.27931
G1 X146.643 Y181.546 E12.31244
G1 X146.272 Y181.723 E12.34525
G1 X145.818 Y181.926 E12.38495
G1 X145.087 Y182.231 E12.44817
G1 X144.348 Y182.524 E12.51163
G1 X143.685 Y182.773 E12.56816
G1 X143.336 Y182.897 E12.59773
G1 X142.679 Y183.113 E12.65294
G1 X141.752 Y183.391 E12.73019
G1 X140.923 Y183.618 E12.7988
G1 X140.471 Y183.731 E12.83599
G1 X139.842 Y183.873 E12.88746
G1 X138.949 Y184.034 E12.95989
G1 X138.438 Y184.09 E13.00093
G1 X137.444 Y184.174 E13.08056
G1 X134.885 Y184.422 E13.28579
G1 X133.986 Y184.521 E13.35798
G1 X133.695 Y184.548 E13.38131
G1 X133.037 Y184.602 E13.43401
G1 X132.131 Y184.637 E13.50639
G1 X130.988 Y184.566 E13.5978
G1 X129.923 Y184.44 E13.68341
G1 X127.289 Y184.169 E13.89477
G1 X124.788 Y183.982 E14.09497
G1 X122.239 Y183.864 E14.29866
G1 X120.272 Y183.821 E14.45571
G1 X119.289 Y183.81 E14.53419
G1 X118.093 Y183.784 E14.62968
G1 X116.7 Y183.738 E14.74093
G1 X115.171 Y183.667 E14.86312
G1 X113.933 Y183.591 E14.96213
G1 X112.587 Y183.489 E15.06988
G1 X111.957 Y183.428 E15.1204
G1 X110.579 Y183.279 E15.23104
G1 X108.848 Y183.049 E15.37043
G1 X108.498 Y182.996 E15.39869
G1 X106.975 Y182.738 E15.52199
G1 X106.3 Y182.606 E15.57689
G1 X105.631 Y182.461 E15.63154
G1 X104.082 Y182.088 E15.75872
G1 X103.753 Y182.003 E15.78584
G1 X102.905 Y181.769 E15.85606
G1 X102.457 Y181.634 E15.89341
G1 X101.274 Y181.249 E15.99272
G1 X100.788 Y181.078 E16.03385
G1 X99.756 Y180.684 E16.12203
G1 X99.451 Y180.561 E16.14828
G1 X98.384 Y180.11 E16.24075
G1 X97.63 Y179.764 E16.30697
G1 X96.966 Y179.439 E16.36598
G1 X96.542 Y179.22 E16.40407
G1 X95.402 Y178.595 E16.50785
G1 X94.931 Y178.32 E16.55139
G1 X94.135 Y177.827 E16.62613
G1 X93.641 Y177.504 E16.67324
G1 X91.419 Y176.061 E16.88473
G1 X89.618 Y174.958 E17.05331
G1 X88.887 Y174.521 E17.1213
G1 X88.13 Y174.022 E17.19367
G1 X87.419 Y173.458 E17.26612
G1 X86.865 Y172.941 E17.3266
G1 X86.697 Y172.772 E17.34563
G1 X86.328 Y172.381 E17.38854
G1 X85.943 Y171.951 E17.43461
G1 X85.564 Y171.502 E17.48152
G1 X84.936 Y170.708 E17.56232
G1 X84.296 Y169.853 E17.64758
G1 X84.101 Y169.579 E17.67442
G1 X83.856 Y169.218 E17.70925
G1 X83.154 Y168.13 E17.81261
G1 X82.919 Y167.74 E17.84895
G1 X82.504 Y167.013 E17.91577
G1 X82.152 Y166.359 E17.97506
G1 X81.37 Y164.935 E18.10474
G1 X80.994 Y164.264 E18.16614
G1 X80.719 Y163.738 E18.21352
G1 X80.517 Y163.318 E18.25072
G1 X79.896 Y161.982 E18.36833
G1 X78.975 Y160.125 E18.53379
G1 X78.472 Y159.137 E18.62229
G1 X78.168 Y158.515 E18.67755
G1 X77.737 Y157.498 E18.76572
G1 X76.73 Y154.717 E19.00182
G1 X76.436 Y153.932 E19.06873
G1 X76.146 Y153.035 E19.14398
G1 X75.945 Y152.292 E19.20543
G1 X75.819 Y151.784 E19.2472
G1 X75.603 Y150.875 E19.32179
G1 X74.638 Y147.162 E19.62802
G1 X74.478 Y146.596 E19.67497
G1 X74.26 Y145.665 E19.7513
G1 X74.029 Y144.408 E19.85332
G1 X73.909 Y143.685 E19.91182
G1 X73.721 Y142.475 E20.00957
G1 X73.554 Y141.325 E20.10233
G1 X73.397 Y140.165 E20.19577
G1 X73.23 Y138.844 E20.30205
G1 X73.117 Y137.867 E20.38056
G1 X72.962 Y136.424 E20.49641
G1 X72.881 Y135.605 E20.56211
G1 X72.723 Y133.896 E20.69911
G1 X72.657 Y133.098 E20.76303
G1 X72.477 Y130.678 E20.95673
G1 X72.393 Y129.311 E21.06606
G1 X72.318 Y127.643 E21.19934
G1 X72.192 Y124.565 E21.44525
G1 X72.144 Y122.548 E21.6063
G1 X72.102 Y119.194 E21.87405
G1 X72.105 Y117.656 E21.99682
G1 X72.155 Y113.957 E22.29212
G1 X72.183 Y113.16 E22.35578
G1 X72.208 Y112.739 E22.38944
G1 X72.249 Y112.25 E22.42861
G1 X72.508 Y109.837 E22.62233
G1 X72.707 Y107.338 E22.82245
G1 X72.956 Y103.564 E23.12436
G1 X73.045 Y102.41 E23.21675
G1 X73.172 Y100.968 E23.3323
G1 X73.263 Y100.026 E23.40785
G1 X73.458 Y98.155 E23.55801
G1 X73.682 Y96.238 E23.71207
G1 X73.81 Y95.269 E23.79009
G1 X73.953 Y94.446 E23.85677
G1 X74.23 Y93.16 E23.96178
G1 X74.78 Y90.492 E24.17923
G1 X75.028 Y89.145 E24.28856
G1 X75.147 Y88.471 E24.34319
G1 X75.313 Y87.58 E24.41554
G1 X75.554 Y86.355 E24.5152
G1 X75.832 Y85.02 E24.62405
G1 X76.049 Y84.043 E24.70394
G1 X76.321 Y82.873 E24.79983
G1 X76.543 Y81.965 E24.87444
G1 X76.981 Y80.294 E25.01233
G1 X77.652 Y77.958 E25.20634
G1 X77.891 Y77.19 E25.27055
G1 X78.336 Y75.818 E25.38569
G1 X79.022 Y73.885 E25.54941
G1 X79.145 Y73.557 E25.57738
G1 X79.445 Y72.795 E25.64275
G1 X79.633 Y72.347 E25.68153
G1 X79.748 Y72.091 E25.70393
G1 X80.123 Y71.34 E25.77094
G1 X80.662 Y70.362 E25.86008
G1 X81.853 Y68.135 E26.06167
G1 X82.865 Y66.102 E26.24295
G1 X83.055 Y65.732 E26.27615
G1 X83.505 Y64.944 E26.34859
G1 X83.835 Y64.452 E26.39588
G1 X84.636 Y63.33 E26.50592
G1 X84.859 Y63.03 E26.53576
G1 X85.333 Y62.417 E26.59761
G1 X85.538 Y62.162 E26.62373
G1 X85.968 Y61.654 E26.67686
G1 X86.478 Y61.102 E26.73685
G1 X86.86 Y60.718 E26.78009
G1 X87.66 Y59.936 E26.86939
G1 X87.943 Y59.674 E26.90017
G1 X88.747 Y58.956 E26.98622
G1 X89.226 Y58.554 E27.03613
G1 X90.119 Y57.849 E27.12695
G1 X90.44 Y57.605 E27.15914
G1 X90.889 Y57.279 E27.20343
G1 X92.626 Y56.047 E27.37342
G1 X93.581 Y55.38 E27.46641
G1 X94.347 Y54.893 E27.53886
G1 X94.95 Y54.573 E27.59335
G1 X95.379 Y54.363 E27.63148
G1 X95.782 Y54.176 E27.66695
G1 X96.462 Y53.884 E27.72602
G1 X97.793 Y53.358 E27.84026
G1 X98.033 Y53.271 E27.86064
G1 X98.752 Y53.022 E27.92138
G1 X99.039 Y52.928 E27.94548
G1 X99.466 Y52.794 E27.98121
G1 X99.798 Y52.696 E28.00884
G1 X101.345 Y52.267 E28.13699
G1 X101.7 Y52.175 E28.16626
G1 X102.472 Y51.992 E28.22959
G1 X102.849 Y51.911 E28.26037
G1 X104.819 Y51.503 E28.42097
G1 X105.341 Y51.384 E28.4637
G1 X106.611 Y51.105 E28.5675
G1 X107.488 Y50.952 E28.63856
G1 X108.009 Y50.884 E28.6805
G1 X108.59 Y50.824 E28.72713
G1 X109.351 Y50.77 E28.78803
G1 X110.424 Y50.71 E28.87381
G1 X112.671 Y50.628 E29.0533
G1 X113.697 Y50.61 E29.13521
G1 X117.871 Y50.589 E29.4684
G1 X120.413 Y50.502 E29.67143
G1 X120.9 Y50.474 E29.71037
G1 X121.825 Y50.433 E29.78428
G1 X122.403 Y50.424 E29.83042
G1 X123.078 Y50.432 E29.88431
G1 X123.612 Y50.444 E29.92695
G0 F6000 X123.627 Y49.844
G1 F1200 X124.804 Y49.892 E30.02098
G1 X125.605 Y49.937 E30.08502
G1 X126.816 Y50.023 E30.18193
G1 X127.24 Y50.062 E30.21592
G1 X128.114 Y50.152 E30.28605
G1 X129.085 Y50.271 E30.36414
G1 X129.415 Y50.319 E30.39076
G1 X130.332 Y50.492 E30.46525
G1 X131.105 Y50.704 E30.52923
G1 X132.717 Y51.212 E30.66415
G1 X134.908 Y51.96 E30.84896
G1 X135.509 Y52.183 E30.90013
G1 X136.128 Y52.434 E30.95344
G1 X136.998 Y52.819 E31.02939
G1 X137.648 Y53.133 E31.08701
G1 X138.266 Y53.457 E31.14271
G1 X139.074 Y53.926 E31.21729
G1 X140.111 Y54.678 E31.31954
G1 X141.243 Y55.606 E31.43638
G1 X141.964 Y56.213 E31.51162
G1 X142.725 Y56.84 E31.59033
G1 X143.08 Y57.147 E31.62779
G1 X143.485 Y57.516 E31.67152
G1 X143.739 Y57.759 E31.69958
G1 X144.385 Y58.433 E31.77411
G1 X144.972 Y59.159 E31.84863
G1 X145.4 Y59.783 E31.90903
G1 X147.269 Y62.72 E32.18692
G1 X147.967 Y63.776 E32.28797
G1 X148.157 Y64.074 E32.31618
G1 X148.643 Y64.864 E32.39022
G1 X148.811 Y65.147 E32.41649
G1 X149.159 Y65.753 E32.47227
G1 X149.707 Y66.845 E32.5698
G1 X151.108 Y70.076 E32.85091
G1 X151.394 Y70.807 E32.91357
G1 X151.979 Y72.475 E33.05467
G1 X152.149 Y72.936 E33.09389
G1 X152.628 Y74.273 E33.20726
G1 X152.818 Y74.854 E33.25606
G1 X153.125 Y75.893 E33.34254
G1 X153.616 Y77.623 E33.48609
G1 X153.863 Y78.437 E33.55399
G1 X154.095 Y79.342 E33.62857
G1 X154.197 Y79.893 E33.6733
G1 X154.311 Y80.613 E33.73149
G1 X154.733 Y83.121 E33.9345
G1 X155.231 Y85.634 E34.139
G1 X155.778 Y88.04 E34.33596
G1 X156.26 Y89.945 E34.49282
G1 X156.578 Y91.162 E34.59322
G1 X156.953 Y92.651 E34.71579
G1 X157.205 Y93.682 E34.80052
G1 X157.826 Y96.346 E35.01887
G1 X158.189 Y97.992 E35.15342
G1 X158.392 Y98.952 E35.23174
G1 X158.73 Y100.602 E35.36619
G1 X158.919 Y101.573 E35.44515
G1 X159.569 Y105.028 E35.72578
G1 X159.771 Y106.143 E35.81624
G1 X160.172 Y108.482 E36.00567
G1 X160.514 Y110.536 E36.17189
G1 X160.654 Y111.433 E36.24435
G1 X160.936 Y113.308 E36.39571
G1 X161.346 Y116.176 E36.62697
G1 X161.607 Y118.176 E36.78797
G1 X162.048 Y121.849 E37.08328
G1 X162.182 Y123.089 E37.18283
G1 X162.573 Y127.167 E37.50985
G1 X162.665 Y128.231 E37.5951
G1 X162.854 Y130.744 E37.79627
G1 X163.011 Y133.3 E38.00068
G1 X163.128 Y135.829 E38.20277
G1 X163.187 Y137.534 E38.33895
G1 X163.207 Y138.322 E38.40188
G1 X163.235 Y139.92 E38.52945
G1 X163.242 Y140.93 E38.61008
G1 X163.24 Y142.318 E38.72088
G1 X163.228 Y143.371 E38.80494
G1 X163.203 Y144.532 E38.89763
G1 X163.159 Y145.908 E39.00753
G1 X163.117 Y146.874 E39.08471
G1 X163.043 Y148.227 E39.19287
G1 X162.979 Y149.17 E39.26832
G1 X162.879 Y150.432 E39.36938
G1 X162.803 Y151.266 E39.43623
G1 X162.587 Y153.27 E39.59712
G1 X162.313 Y155.28 E39.75905
G1 X161.92 Y157.887 E39.9695
G1 X161.61 Y160.426 E40.17368
G1 X161.347 Y163.258 E40.40072
G1 X161.221 Y164.183 E40.47524
G1 X161.017 Y165.094 E40.54976
G1 X160.773 Y165.879 E40.61538
G1 X160.677 Y166.151 E40.6384
G1 X160.529 Y166.546 E40.67207
G1 X160.147 Y167.508 E40.7547
G1 X160.011 Y167.833 E40.78282
G1 X159.76 Y168.41 E40.83305
G1 X159.552 Y168.86 E40.87262
G1 X159.132 Y169.71 E40.9483
G1 X158.995 Y169.973 E40.97197
G1 X158.81 Y170.313 E41.00287
G1 X158.15 Y171.477 E41.10968
G1 X157.235 Y173.106 E41.25883
G1 X156.933 Y173.626 E41.30683
G1 X156.43 Y174.413 E41.38139
G1 X156.018 Y174.961 E41.43611
G1 X155.87 Y175.146 E41.45502
G1 X155.434 Y175.658 E41.50871
G1 X154.89 Y176.258 E41.57335
G1 X154.501 Y176.666 E41.61835
G1 X153.955 Y177.209 E41.67982
G1 X153.701 Y177.454 E41.70799
G1 X153.451 Y177.687 E41.73527
G1 X152.761 Y178.294 E41.80863
G1 X152.162 Y178.789 E41.87066
G1 X151.594 Y179.231 E41.92811
G1 X151.109 Y179.586 E41.97609
G1 X150.221 Y180.199 E42.06222
G1 X150.016 Y180.334 E42.08181
G1 X149.67 Y180.553 E42.1145
G1 X148.873 Y181.036 E42.18889
G1 X148.31 Y181.355 E42.24054
G1 X147.294 Y181.891 E42.33224
G1 X146.901 Y182.088 E42.36733
G1 X146.53 Y182.265 E42.40014
G1 X146.05 Y182.48 E42.44213
G1 X145.31 Y182.788 E42.50611
G1 X144.559 Y183.086 E42.57061
G1 X143.896 Y183.335 E42.62714
G1 X143.527 Y183.466 E42.65839
G1 X142.854 Y183.687 E42.71494
G1 X141.911 Y183.97 E42.79353
G1 X141.082 Y184.197 E42.86214
G1 X140.603 Y184.316 E42.90154
G1 X139.974 Y184.458 E42.95301
G1 X139.056 Y184.625 E43.02749
G1 X138.489 Y184.688 E43.07303
G1 X137.47 Y184.774 E43.15466
G1 X134.935 Y185.019 E43.35796
G1 X134.052 Y185.117 E43.42888
G1 X133.745 Y185.146 E43.45349
G1 X133.087 Y185.2 E43.50619
G1 X132.154 Y185.237 E43.58073
G1 X130.918 Y185.162 E43.67957
G1 X129.858 Y185.037 E43.76477
G1 X127.254 Y184.769 E43.97373
G1 X124.718 Y184.579 E44.17673
G1 X122.198 Y184.462 E44.37811
G1 X120.327 Y184.421 E44.5275
G1 X119.276 Y184.41 E44.6114
G1 X118.074 Y184.383 E44.70737
G1 X116.673 Y184.337 E44.81926
G1 X115.135 Y184.265 E44.94217
G1 X113.889 Y184.19 E45.04181
G1 X112.529 Y184.087 E45.15068
G1 X111.895 Y184.024 E45.20154
G1 X110.5 Y183.874 E45.31354
G1 X108.769 Y183.644 E45.45293
G1 X108.398 Y183.588 E45.48288
G1 X106.861 Y183.327 E45.60732
G1 X106.177 Y183.193 E45.66296
G1 X105.49 Y183.044 E45.71907
G1 X103.941 Y182.671 E45.84626
G1 X103.594 Y182.581 E45.87487
G1 X102.746 Y182.347 E45.94509
G1 X102.272 Y182.205 E45.98459
G1 X101.089 Y181.82 E46.0839
G1 X100.574 Y181.638 E46.1275
G1 X99.542 Y181.244 E46.21568
G1 X99.219 Y181.115 E46.24344
G1 X98.137 Y180.657 E46.33723
G1 X97.672 Y180.447 E46.37796
G1 X97.366 Y180.303 E46.40495
G1 X96.702 Y179.978 E46.46397
G1 X96.254 Y179.746 E46.50424
G1 X95.114 Y179.121 E46.60802
G1 X94.615 Y178.83 E46.65413
G1 X93.819 Y178.337 E46.72887
G1 X93.504 Y178.134 E46.75878
G1 X93.279 Y177.983 E46.78041
G1 X91.138 Y176.594 E46.98413
